X:151
T:Merry Bachelor - is this the tune
%%VWML:SBG-1-2-119-0
F:http://www.vwml.org/record/SBG/1/2/119
Z:Original Sibelius transcriptions by M. & S. Graebe
M:3/4
I:linebreak $
K:F
V:1 treble nm="P1"
V:1
 A | BA e3 d | cB A3 A | BA c3 d | e4 z A | BA e3 d | cB A3 A | BA G3 F |$ A4 z c | de d3 c | %10
 de c3 f | ed ^c3 A | de A3 B | AF G3 A | c6 | %15

